X: 9
T: Missa Coda di pavon / Sanctus
N: Derived from Mar1002d-Missa_Coda_di_pavon-Sanctus.krn
C: Johannes Martini
%%abc-version 2.0
%%abcx-abcm2ps-target-version 5.9.1 (29 Sep 2008)
%%abc-creator hum2abc beta
%%abcx-conversion-date 2019/02/17 07:19:40
%%abc-edited-by Jesse Rodin
%%abc-edited-by Chris Gage 11-13-2013
%%abcx-initial-encoding-date 2014/06/21/
%%humdrum-veritas 2891531423
%%humdrum-veritas-data 612428281
%%linebreak <none>
%%barnumbers 0
L: 1/4
M: 4/2
Q: 1/2=120
%%staves [1 2 3 4]
V: 1 clef=treble
V: 2 clef=treble-8
V: 3 clef=treble-8
V: 4 clef=bass
K: C
[V:1] G8 | 
[V:2] d4e4 | 
[V:3] g8 | 
[V:4] G,8 | 
[V:1] A8 | 
[V:2] d2cBA2d2- | 
[V:3] f8 | 
[V:4] D,8 | 
[V:1] B3cd2e2- | 
[V:2] dcB2A2c2- | 
[V:3] g4f2g2- | 
[V:4] G,3F,D,2C,2 | 
[V:1] e2dcB2c2- | 
[V:2] c2d3ef2 | 
[V:3] g2fed2c2 | 
[V:4] E,2F,2G,2A,2 | 
[V:1] c2B2c2G2- | 
[V:2] g8 | 
[V:3] d4c4 | 
[V:4] G,4C,4 | 
[V:1] GAB2c2d2 | 
[V:2] z8 | 
[V:3] G4A2B2 | 
[V:4] z8 | 
[V:1] c2A3Bc2- | 
[V:2] z8 | 
[V:3] c2d2c2A2 | 
[V:4] z8 | 
[V:1] cBG2_B2A2- | 
[V:2] z8 | 
[V:3] c3BG2d2 | 
[V:4] z8 | 
[V:1] AGG4^F2 | 
[V:2] z8 | 
[V:3] B2c2A4 | 
[V:4] z8 | 
[V:1] G4z4 | 
[V:2] z2d2e2e2 | 
[V:3] G4z4 | 
[V:4] z4C4 | 
[V:1] z8 | 
[V:2] d4c2g2- | 
[V:3] z8 | 
[V:4] B,2B,2C2B,A, | 
[V:1] z8 | 
[V:2] g2fedefg | 
[V:3] z8 | 
[V:4] G,2A,2B,2A,2 | 
[V:1] z8 | 
[V:2] e2d3cBA | 
[V:3] z8 | 
[V:4] C2B,2G,3F, | 
[V:1] z8 | 
[V:2] G2c2d2e2- | 
[V:3] z8 | 
[V:4] E,D,C,2_B,,2C,2- | 
[V:1] z8 | 
[V:2] edc4B2 | 
[V:3] z8 | 
[V:4] C,D,E,2D,4 | 
[V:1] E6F2 | 
[V:2] c4A4 | 
[V:3] c8 | 
[V:4] C,4z4 | 
[V:1] G2A2B2c2 | 
[V:2] G4z4 | 
[V:3] c4d4 | 
[V:4] C,4G,4- | 
[V:1] d3ce2d2- | 
[V:2] z2G2A2_B2- | 
[V:3] B4c2d2 | 
[V:4] G,4C,2_B,,2- | 
[V:1] dcc4B2 | 
[V:2] BAG2z2g2 | 
[V:3] f2e2d4 | 
[V:4] B,,2C,2G,4 | 
[V:1] c4z2G2 | 
[V:2] a2g2e4 | 
[V:3] c8 | 
[V:4] C,8 | 
[V:1] A2B2c2BA | 
[V:2] f2edc2z2 | 
[V:3] z2G2A2B2 | 
[V:4] z8 | 
[V:1] G2z2d3c | 
[V:2] z8 | 
[V:3] c2BAG2d2- | 
[V:4] z4z2D,2 | 
[V:1] B2A3GG2- | 
[V:2] z8 | 
[V:3] d2c3dB2 | 
[V:4] G,2A,2F,2G,2 | 
[V:1] G2^F2G4 | 
[V:2] z4z2d2 | 
[V:3] A4G4 | 
[V:4] D,4G,4 | 
[V:1] z4z2A2 | 
[V:2] e4f4 | 
[V:3] c8 | 
[V:4] C,4F,2A,2 | 
[V:1] B4c4 | 
[V:2] g6fg | 
[V:3] z2d2e4 | 
[V:4] G,4C,2E,2 | 
[V:1] d4z2e2 | 
[V:2] a3ge4 | 
[V:3] f3ec4 | 
[V:4] D,4A,4 | 
[V:1] d2f2e2d2- | 
[V:2] z4a4 | 
[V:3] z2d2e2f2 | 
[V:4] _B,4C2D2 | 
[V:1] dcc4B2 | 
[V:2] g8 | 
[V:3] g2e2d4 | 
[V:4] G,2C2G,4 | 
[V:1] c8 ||  
[V:2] g8 ||  
[V:3] c8 ||  
[V:4] C,8 ||  
[V:1]  [K:C] [K:clef=treble][M:4/2]z8 | 
[V:2]  [K:C] [K:clef=treble-8][M:4/2]G4c4- | 
[V:3]  [K:C] [K:clef=treble-8][M:4/2]z8 | 
[V:4]  [K:C] [K:clef=bass][M:4/2]z8 | 
[V:1] z4G4 | 
[V:2] c2d2e3d | 
[V:3] z8 | 
[V:4] z8 | 
[V:1] c6d2 | 
[V:2] e2f4ed | 
[V:3] z8 | 
[V:4] z8 | 
[V:1] e3de2f2- | 
[V:2] c4z4 | 
[V:3] z8 | 
[V:4] z8 | 
[V:1] f2edc4 | 
[V:2] d3ef2e2- | 
[V:3] z8 | 
[V:4] z8 | 
[V:1] z4d3e | 
[V:2] e2dcB4 | 
[V:3] z8 | 
[V:4] z8 | 
[V:1] f2e4dc | 
[V:2] A2c4BA | 
[V:3] z8 | 
[V:4] z8 | 
[V:1] B4A2c2- | 
[V:2] G2g2f2a2- | 
[V:3] z8 | 
[V:4] z8 | 
[V:1] c2BAG2d2 | 
[V:2] a2gfe2f2 | 
[V:3] z8 | 
[V:4] z8 | 
[V:1] c2e3dc2- | 
[V:2] a2g3ef2 | 
[V:3] z8 | 
[V:4] z8 | 
[V:1] c2B2c4 | 
[V:2] d4c4- | 
[V:3] z8 | 
[V:4] z8 | 
[V:1] G2A4G2 | 
[V:2] c4z4 | 
[V:3] z8 | 
[V:4] z8 | 
[V:1] E2D2F2ED | 
[V:2] g2a4g2 | 
[V:3] z8 | 
[V:4] z8 | 
[V:1] C2z2D2C2 | 
[V:2] e2d2f2ed | 
[V:3] z8 | 
[V:4] z8 | 
[V:1] E4F2G2- | 
[V:2] c4d2c2 | 
[V:3] z8 | 
[V:4] z8 | 
[V:1] G2A2B2c2 | 
[V:2] e2f2g2e2 | 
[V:3] z8 | 
[V:4] z8 | 
[V:1] BAGFE2D2- | 
[V:2] d4c2B2 | 
[V:3] z8 | 
[V:4] z8 | 
[V:1] D2G4^F2 | 
[V:2] G4A4 | 
[V:3] z8 | 
[V:4] z8 | 
[V:1] G4z4 | 
[V:2] G4c4 | 
[V:3] z4C4 | 
[V:4] z8 | 
[V:1] z8 | 
[V:2] d2e2f2g2- | 
[V:3] B,2C2D2E2- | 
[V:4] z8 | 
[V:1] z8 | 
[V:2] g2e2d4 | 
[V:3] EFG3AB2 | 
[V:4] z8 | 
[V:1] z8 | 
[V:2] c2g4f2 | 
[V:3] c2BAG2A2 | 
[V:4] z8 | 
[V:1] z8 | 
[V:2] e2dcB3A | 
[V:3] G2FED4 | 
[V:4] z8 | 
[V:1] E3FG2A2 | 
[V:2] c4e4- | 
[V:3] C4c4- | 
[V:4] z8 | 
[V:1] G2c2B2AG | 
[V:2] e4d4 | 
[V:3] c4G4 | 
[V:4] z8 | 
[V:1] A2GFE2G2- | 
[V:2] f4g2e2- | 
[V:3] d4c3B | 
[V:4] z8 | 
[V:1] GABcd2e2- | 
[V:2] e2dcB2c2- | 
[V:3] G3FD2C2 | 
[V:4] z8 | 
[V:1] edc2B2c2- | 
[V:2] cde2d2c2 | 
[V:3] c4G2A2 | 
[V:4] z8 | 
[V:1] c2B2c4 ||  
[V:2] d4c4 ||  
[V:3] G4C4 ||  
[V:4] z8 ||  
[V:1]  [K:C] [K:clef=treble][M:4/2](3:2:2G8F4 | 
[V:2]  [K:C] [K:clef=treble-8][M:4/2](3e4g4a4 | 
[V:3]  [K:C] [K:clef=treble-8][M:4/2](3:2:2c8c4 | 
[V:4]  [K:C] [K:clef=bass][M:4/2](3C,4E,4F,4 | 
[V:1] (3:2:2D8E4- | 
[V:2] (3:2:2g8g4 | 
[V:3] (3B4B4c4 | 
[V:4] (3:2:2G,8C,4- | 
[V:1] (3E4D4C4 | 
[V:2] (3:2:2g8c4 | 
[V:3] (3c4G4A4 | 
[V:4] (3C,4z4F,4 | 
[V:1] (3:2:4G6E2F2G2 | 
[V:2] e2(3:2:4fg2a2_b4 | 
[V:3] (3G4c4d4 | 
[V:4] (3E,4C,4_B,,4 | 
[V:1] (3:2:2E4D8 | 
[V:2] (3:2:2g8g4 | 
[V:3] (3:2:2c6B2B2(3:2:1A | 
[V:4] (3:2:2C,4G,8 | 
[V:1] (3:2:2C8z4 | 
[V:2] (3e4c4A4 | 
[V:3] (3:2:2c4e8 | 
[V:4] (3:2:2C,8C4- | 
[V:1] (3G4A4c4 | 
[V:2] (3z4c4c4 | 
[V:3] (3c4f4e4 | 
[V:4] (3C4F,4A,4 | 
[V:1] (3:2:2B8G4 | 
[V:2] (3d4B4c4 | 
[V:3] (3:2:2g8e4 | 
[V:4] (3:2:2G,8C,4 | 
[V:1] (3:2:4A6G2E2D2 | 
[V:2] (3A4A4c4- | 
[V:3] (3f4c6B2 | 
[V:4] (3F,6E,2C,4 | 
[V:1] (3:2:4G6^F2F2E2 | 
[V:2] (3:2:2c4d8 | 
[V:3] (3:2:2G4A8 | 
[V:4] (3:2:2E,4D,8 | 
[V:1] (3G4z4A4 | 
[V:2] (3B4A4c4 | 
[V:3] (3G4c4z4 | 
[V:4] (3E,4F,4A,4 | 
[V:1] (3B4z4c4 | 
[V:2] (3:2:2B8A4 | 
[V:3] (3d4e4z4 | 
[V:4] (3G,4E,4A,4 | 
[V:1] (3d4z4e4 | 
[V:2] (3:2:2A8A4 | 
[V:3] (3f6e2c4 | 
[V:4] (3:2:2D,8z4 | 
[V:1] (3f6e2d4 | 
[V:2] (3:2:2a8a4- | 
[V:3] (3:2:2d8f4 | 
[V:4] (3:2:2D,8D,4 | 
[V:1] (3c4z4f4 | 
[V:2] (3:2:2a4f8 | 
[V:3] (3e4d4z4 | 
[V:4] (3A,4_B,4D4 | 
[V:1] (3e4c4d4- | 
[V:2] (3:2:2g4a4_b2(3:2:1a | 
[V:3] (3:2:4g4e4d2f2- | 
[V:4] (3:2:2C8_B,4- | 
[V:1] (3:2:4d4e4d2c2 | 
[V:2] (3:2:4f2g2a4d4 | 
[V:3] (3:2:4f2e2c4f4 | 
[V:4] (3B,4A,4_B,4 | 
[V:1] (3:2:4c6B2B2A2 | 
[V:2] (3:2:2g8g4 | 
[V:3] (3:2:2e4d8 | 
[V:4] (3:2:2C4G,8 | 
[V:1] c8 ||  
[V:2] g8 ||  
[V:3] c8 ||  
[V:4] C,8 ||  
[V:1]  [K:C] [K:clef=treble][M:4/2]G8- | 
[V:2]  [K:C] [K:clef=treble-8][M:4/2]z8 | 
[V:3]  [K:C] [K:clef=treble-8][M:4/2]z8 | 
[V:4]  [K:C] [K:clef=bass][M:4/2]z8 | 
[V:1] G4A4 | 
[V:2] z8 | 
[V:3] z8 | 
[V:4] z8 | 
[V:1] B4d4- | 
[V:2] z8 | 
[V:3] z8 | 
[V:4] G,8- | 
[V:1] d2cBc4 | 
[V:2] z8 | 
[V:3] z8 | 
[V:4] G,4A,4 | 
[V:1] d3cA2B2- | 
[V:2] z8 | 
[V:3] z8 | 
[V:4] B,4D4- | 
[V:1] BAGFE4 | 
[V:2] z8 | 
[V:3] z8 | 
[V:4] D2CB,C4 | 
[V:1] D4z4 | 
[V:2] z8 | 
[V:3] z8 | 
[V:4] D3CA,2B,2- | 
[V:1] G6FE | 
[V:2] z8 | 
[V:3] z8 | 
[V:4] B,A,G,F,E,4 | 
[V:1] F3GA2_B2- | 
[V:2] z8 | 
[V:3] z8 | 
[V:4] D,4z4 | 
[V:1] Bcd4c=B | 
[V:2] z8 | 
[V:3] z8 | 
[V:4] G,6E,2 | 
[V:1] A3Bc2d2- | 
[V:2] z8 | 
[V:3] z8 | 
[V:4] F,3G,A,2_B,2- | 
[V:1] dcB4AG | 
[V:2] z8 | 
[V:3] z8 | 
[V:4] B,CD4C=B, | 
[V:1] ^F3EG4 | 
[V:2] z8 | 
[V:3] z8 | 
[V:4] A,4G,4 | 
[V:1] z4D4 | 
[V:2] G8 | 
[V:3] z8 | 
[V:4] z8 | 
[V:1] E6DC | 
[V:2] c6BA | 
[V:3] z8 | 
[V:4] z8 | 
[V:1] D6E2- | 
[V:2] B4G4 | 
[V:3] z8 | 
[V:4] z8 | 
[V:1] E2F2G4- | 
[V:2] A4B2c2- | 
[V:3] z8 | 
[V:4] z8 | 
[V:1] G2A4B2 | 
[V:2] c2c2d4 | 
[V:3] z8 | 
[V:4] z8 | 
[V:1] c6d2- | 
[V:2] e2f4f2 | 
[V:3] z8 | 
[V:4] z8 | 
[V:1] d2e2f4 | 
[V:2] g3fd4 | 
[V:3] z8 | 
[V:4] z8 | 
[V:1] e2c4B2 | 
[V:2] c3defg2 | 
[V:3] z8 | 
[V:4] z8 | 
[V:1] c2d4G2- | 
[V:2] a2f2g4 | 
[V:3] z8 | 
[V:4] z8 | 
[V:1] G2c4B2 | 
[V:2] c4d4 | 
[V:3] z8 | 
[V:4] z8 | 
[V:1] c4z4 | 
[V:2] c8 | 
[V:3] z8 | 
[V:4] z8 | 
[V:1] c6BA | 
[V:2] z4e4 | 
[V:3] z8 | 
[V:4] z8 | 
[V:1] B4A4 | 
[V:2] d4f4- | 
[V:3] z8 | 
[V:4] z8 | 
[V:1] d4c4 | 
[V:2] f2ede4 | 
[V:3] z8 | 
[V:4] z8 | 
[V:1] d2B4AG | 
[V:2] d4g4 | 
[V:3] z8 | 
[V:4] z8 | 
[V:1] A4G4 | 
[V:2] f4g2e2- | 
[V:3] z8 | 
[V:4] z8 | 
[V:1] c4B2A2- | 
[V:2] e2dcd2c2 | 
[V:3] z8 | 
[V:4] z8 | 
[V:1] A2GFG2F2- | 
[V:2] f4e2d2- | 
[V:3] z8 | 
[V:4] z8 | 
[V:1] F2EDE2D2 | 
[V:2] d2cBc2B2- | 
[V:3] z8 | 
[V:4] z8 | 
[V:1] G4F2G2- | 
[V:2] B2AGA2G2- | 
[V:3] z8 | 
[V:4] z8 | 
[V:1] GFE2D4 | 
[V:2] G2c4B2 | 
[V:3] z8 | 
[V:4] z8 | 
[V:1] [M:3/1]C8z4 | 
[V:2] [M:3/1]c4z4G4 | 
[V:3] [M:3/1]z12 | 
[V:4] [M:3/1]C,4F,4E,4 | 
[V:1] z4z4G4 | 
[V:2] c4B4c4 | 
[V:3] z12 | 
[V:4] F,4D,4C,4 | 
[V:1] c4B4c4 | 
[V:2] A4G4c4 | 
[V:3] z12 | 
[V:4] z4G,4A,4 | 
[V:1] A4G4c4 | 
[V:2] f4e4f4 | 
[V:3] z12 | 
[V:4] F,4C4F,4 | 
[V:1] d4e6d2 | 
[V:2] d4c4e4- | 
[V:3] z12 | 
[V:4] _B,4A,4C4- | 
[V:1] c8B4 | 
[V:2] e4d8 | 
[V:3] z12 | 
[V:4] C4G,8 | 
[V:1] c12 ||  
[V:2] c12 ||  
[V:3] z12 ||  
[V:4] C,12 ||  



